X: 365
T: Lev Tahor
O: Psalm 51:12
M: 2/4
L: 1/8
W: Make me a clean heart, O God,
W: And renew a steadfast spirit within me,
W: Cast me not from Thy presence,
W: And take not Thy holy spirit from me.
K: Dm
|: "Dm"(D2 E)F | "Gm"(G2 F)E | "Dm"(F2 ED) | "C"(ED) CE | "Dm"D4- | D2 zA, |
w: Lev* ta-hor* b'-ra'** li* E-lo-kim,* v'-
| "Dm"D2 EF | "Gm"(G2 F)E | "Dm"(F2 E)D | "C"ED (CE) | "Dm"D4- | D2 "(C7)"z2 :|
w: ru-ach na-chon* cha-desh,* cha-desh b'-kir-*bi.
|: "F"A2 Bc | "Bb"(d2 cB | "F"A3 G) | "Dm"F4 | "F"(A2 B)c | "Bb"(d2 cB) | "F"A4- | A2 "A7"zA |
w: Al tash-li-che-----ni mil-*fa-ney-**cha,* v'-
| "Dm"(A2 GA | "Gm"G2 F)G | "Dm"F3 E | "(Bb)"D2 zD | "C"E2 E2 | "(Am)"(ED) (CE) | "Dm"D4- | D2 z2 :|
w: ru-----ach kad-sh'-cha al ti-kach mi-*me-*ni.
